src/catppuccin-frappe-flamingo-cursors/copy.svg

<?xml version="1.0" encoding="UTF-8" standalone="no"?>
<svg
   id="svg5327"
   width="32"
   height="32"
   version="1.1"
   sodipodi:docname="copy.svg"
   inkscape:version="1.1.2 (0a00cf5339, 2022-02-04)"
   xmlns:inkscape="http://www.inkscape.org/namespaces/inkscape"
   xmlns:sodipodi="http://sodipodi.sourceforge.net/DTD/sodipodi-0.dtd"
   xmlns:xlink="http://www.w3.org/1999/xlink"
   xmlns="http://www.w3.org/2000/svg"
   xmlns:svg="http://www.w3.org/2000/svg">
  <sodipodi:namedview
     id="namedview2481"
     pagecolor="#ffffff"
     bordercolor="#666666"
     borderopacity="1.0"
     inkscape:pageshadow="2"
     inkscape:pageopacity="0.0"
     inkscape:pagecheckerboard="0"
     showgrid="false"
     inkscape:zoom="25.96875"
     inkscape:cx="16.019254"
     inkscape:cy="16.019254"
     inkscape:window-width="1896"
     inkscape:window-height="1020"
     inkscape:window-x="9"
     inkscape:window-y="45"
     inkscape:window-maximized="1"
     inkscape:current-layer="svg5327" />
  <defs
     id="defs5329">
    <filter
       id="filter885"
       style="color-interpolation-filters:sRGB"
       width="1.12"
       height="1.12"
       x="-.06"
       y="-.06">
      <feGaussianBlur
         id="feGaussianBlur887"
         stdDeviation=".375" />
    </filter>
    <filter
       id="filter901"
       style="color-interpolation-filters:sRGB"
       width="1.143"
       height="1.104"
       x="-.07"
       y="-.05">
      <feGaussianBlur
         id="feGaussianBlur903"
         stdDeviation=".475" />
    </filter>
    <linearGradient
       id="linearGradient832"
       x1="21"
       x2="25"
       y1="16"
       y2="28"
       gradientUnits="userSpaceOnUse"
       xlink:href="#linearGradient830" />
    <linearGradient
       id="linearGradient830">
      <stop
         id="stop826"
         style="stop-color:#ffffff;stop-opacity:1"
         offset="0" />
      <stop
         id="stop828"
         style="stop-color:#ffffff;stop-opacity:0"
         offset="1" />
    </linearGradient>
    <filter
       id="filter860"
       style="color-interpolation-filters:sRGB"
       width="1.12"
       height="1.12"
       x="-.06"
       y="-.06">
      <feGaussianBlur
         id="feGaussianBlur862"
         stdDeviation=".175" />
    </filter>
    <filter
       id="filter833"
       style="color-interpolation-filters:sRGB"
       width="1.171"
       height="1.124"
       x="-.09"
       y="-.06">
      <feGaussianBlur
         id="feGaussianBlur835"
         stdDeviation=".57" />
    </filter>
    <filter
       id="filter837"
       style="color-interpolation-filters:sRGB"
       width="1.144"
       height="1.144"
       x="-0.071999998"
       y="-0.071999998">
      <feGaussianBlur
         id="feGaussianBlur839"
         stdDeviation=".45" />
    </filter>
    <filter
       id="filter841"
       style="color-interpolation-filters:sRGB"
       width="1.144"
       height="1.144"
       x="-0.071999998"
       y="-0.071999998">
      <feGaussianBlur
         id="feGaussianBlur843"
         stdDeviation=".21" />
    </filter>
    <filter
       id="filter914"
       style="color-interpolation-filters:sRGB"
       width="1.171"
       height="1.1243636"
       x="-0.085499998"
       y="-0.062181813">
      <feGaussianBlur
         id="feGaussianBlur916"
         stdDeviation=".57" />
    </filter>
  </defs>
  <path
     id="path859"
     style="opacity:0.2;fill:#000000;fill-opacity:1;stroke:none;stroke-width:2.72727251;stroke-linecap:round;stroke-linejoin:round;stroke-miterlimit:4;stroke-dasharray:none;stroke-opacity:1;filter:url(#filter837)"
     d="M 30.5,23 A 7.5,7.5 0 0 1 23,30.5 7.5,7.5 0 0 1 15.5,23 7.5,7.5 0 0 1 23,15.5 7.5,7.5 0 0 1 30.5,23 Z" />
  <path
     id="path839"
     style="opacity:1;fill:#303446;fill-opacity:1;stroke:none;stroke-width:2.72727251;stroke-linecap:round;stroke-linejoin:round;stroke-miterlimit:4;stroke-dasharray:none;stroke-opacity:1"
     d="M 30,22.5 A 7.5,7.5 0 0 1 22.5,30 7.5,7.5 0 0 1 15,22.5 7.5,7.5 0 0 1 22.5,15 7.5,7.5 0 0 1 30,22.5 Z" />
  <path
     id="path834"
     style="fill:none;fill-opacity:1;fill-rule:evenodd"
     d="m 18,18 v 2 H 16.289062 C 16.193052,19.98948 16.096581,20.0012 16,20 c -1.656854,0 -3,1.343146 -3,3 0,1.656854 1.343146,3 3,3 v -1 c -1.104569,0 -2,-0.895431 -2,-2 0,-1.104569 0.895431,-2 2,-2 h 2 v 2 l 4,-2.5 z" />
  <path
     id="path836"
     style="opacity:1;fill:#EEBEBE;fill-opacity:1;stroke:none;stroke-width:2.36363626;stroke-linecap:round;stroke-linejoin:round;stroke-miterlimit:4;stroke-dasharray:none;stroke-opacity:1"
     d="M 29,22.5 A 6.5,6.5 0 0 1 22.5,29 6.5,6.5 0 0 1 16,22.5 6.5,6.5 0 0 1 22.5,16 6.5,6.5 0 0 1 29,22.5 Z" />
  <path
     id="path824"
     style="opacity:0.2;fill:#EEBEBE;fill-opacity:1;stroke:none;stroke-width:2.36364;stroke-linecap:round;stroke-linejoin:round;stroke-miterlimit:4;stroke-dasharray:none;stroke-opacity:1"
     d="M 29,22.5 A 6.5,6.5 0 0 1 22.5,29 6.5,6.5 0 0 1 16,22.5 6.5,6.5 0 0 1 22.5,16 6.5,6.5 0 0 1 29,22.5 Z" />
  <path
     id="path842"
     style="opacity:0.2;fill:#000000;fill-opacity:1;stroke:none;stroke-width:2;stroke-linecap:round;stroke-linejoin:round;stroke-miterlimit:4;stroke-dasharray:none;stroke-opacity:1;filter:url(#filter841)"
     d="m 22.5,19.5 v 3 h -3 v 1 h 3 v 3 h 1 v -3 h 3 v -1 h -3 v -3 z" />
  <path
     id="rect824"
     style="opacity:1;fill:#303446;fill-opacity:1;stroke:none;stroke-width:2;stroke-linecap:round;stroke-linejoin:round;stroke-miterlimit:4;stroke-dasharray:none;stroke-opacity:1"
     d="M 22 19 L 22 22 L 19 22 L 19 23 L 22 23 L 22 26 L 23 26 L 23 23 L 26 23 L 26 22 L 23 22 L 23 19 L 22 19 z" />
  <path
     id="path887"
     style="color:#000000;font-style:normal;font-variant:normal;font-weight:normal;font-stretch:normal;font-size:medium;line-height:normal;font-family:sans-serif;font-variant-ligatures:normal;font-variant-position:normal;font-variant-caps:normal;font-variant-numeric:normal;font-variant-alternates:normal;font-feature-settings:normal;text-indent:0;text-align:start;text-decoration:none;text-decoration-line:none;text-decoration-style:solid;text-decoration-color:#000000;letter-spacing:normal;word-spacing:normal;text-transform:none;writing-mode:lr-tb;direction:ltr;text-orientation:mixed;dominant-baseline:auto;baseline-shift:baseline;text-anchor:start;white-space:normal;shape-padding:0;clip-rule:nonzero;display:inline;overflow:visible;visibility:visible;opacity:0.2;isolation:auto;mix-blend-mode:normal;color-interpolation:sRGB;color-interpolation-filters:linearRGB;solid-color:#000000;solid-opacity:1;vector-effect:none;fill:#000000;fill-opacity:1;fill-rule:nonzero;stroke:none;stroke-width:1.99915862;stroke-linecap:round;stroke-linejoin:round;stroke-miterlimit:4;stroke-dasharray:none;stroke-dashoffset:0;stroke-opacity:1;filter:url(#filter914);color-rendering:auto;image-rendering:auto;shape-rendering:auto;text-rendering:auto;enable-background:accumulate"
     d="M 2.4621529,1.5013617 C 1.9309785,1.5284396 1.5140652,1.9671028 1.5136622,2.4993344 L 1.5000008,22.497849 c -0.00133,1.135729 1.5899877,1.394218 1.9477239,0.316383 0.9111453,-2.735331 3.0350839,-5.175772 5.1132629,-6.284689 1.2756664,-0.649071 2.6350314,-1.020439 3.9324044,-1.030149 1.281347,-0.0096 2.502207,0.335057 3.524763,0.881722 1.033732,0.555669 2.012905,-0.817786 1.15146,-1.615114 L 3.1940131,1.7669669 C 2.9959677,1.5830739 2.7319551,1.487259 2.4621529,1.5013617 Z" />
  <path
     id="path848"
     style="color:#000000;font-style:normal;font-variant:normal;font-weight:normal;font-stretch:normal;font-size:medium;line-height:normal;font-family:sans-serif;font-variant-ligatures:normal;font-variant-position:normal;font-variant-caps:normal;font-variant-numeric:normal;font-variant-alternates:normal;font-feature-settings:normal;text-indent:0;text-align:start;text-decoration:none;text-decoration-line:none;text-decoration-style:solid;text-decoration-color:#000000;letter-spacing:normal;word-spacing:normal;text-transform:none;writing-mode:lr-tb;direction:ltr;text-orientation:mixed;dominant-baseline:auto;baseline-shift:baseline;text-anchor:start;white-space:normal;shape-padding:0;clip-rule:nonzero;display:inline;overflow:visible;visibility:visible;opacity:1;isolation:auto;mix-blend-mode:normal;color-interpolation:sRGB;color-interpolation-filters:linearRGB;solid-color:#000000;solid-opacity:1;vector-effect:none;fill:#303446;fill-opacity:1;fill-rule:nonzero;stroke:none;stroke-width:1.99915862;stroke-linecap:round;stroke-linejoin:round;stroke-miterlimit:4;stroke-dasharray:none;stroke-dashoffset:0;stroke-opacity:1;color-rendering:auto;image-rendering:auto;shape-rendering:auto;text-rendering:auto;enable-background:accumulate"
     d="M 1.9621521,1.0013629 C 1.4309777,1.0284408 1.0140644,1.467104 1.0136614,1.9993356 L 1,21.997849 c -0.00133,1.135729 1.5899877,1.394218 1.9477239,0.316383 0.9111453,-2.735331 3.0350839,-5.175772 5.1132629,-6.284689 1.2756664,-0.649071 2.6350312,-1.020439 3.9324042,-1.030149 1.281347,-0.0096 2.502207,0.335057 3.524763,0.881722 1.033732,0.555669 2.012905,-0.817786 1.15146,-1.615114 L 2.6940123,1.2669681 C 2.4959669,1.0830751 2.2319543,0.9872602 1.9621521,1.0013629 Z" />
  <path
     id="path823"
     style="opacity:1;fill:#EEBEBE;fill-opacity:1;stroke:none;stroke-width:1.67926061;stroke-linecap:round;stroke-linejoin:round;stroke-miterlimit:4;stroke-dasharray:none;stroke-opacity:1"
     d="M 2.01406,2 2,22 C 3,19 5.2466416,16.39612 7.6028347,15.142847 9.022616,14.418876 10.539543,14.009906 12,14 c 1.435898,-0.0097 2.817191,0.3681 4,1 z" />
</svg>

<svg xmlns="http://www.w3.org/2000/svg" width="32" height="32">
    <defs>
        <filter id="a" width="1.144" height="1.144" x="-.072" y="-.072" style="color-interpolation-filters:sRGB">
            <feGaussianBlur stdDeviation=".45"/>
        </filter>
        <filter id="c" width="1.144" height="1.144" x="-.072" y="-.072" style="color-interpolation-filters:sRGB">
            <feGaussianBlur stdDeviation=".21"/>
        </filter>
        <filter id="d" width="1.171" height="1.124" x="-.085" y="-.062" style="color-interpolation-filters:sRGB">
            <feGaussianBlur stdDeviation=".57"/>
        </filter>
    </defs>
    <path d="M30.5 23a7.5 7.5 0 0 1-7.5 7.5 7.5 7.5 0 0 1-7.5-7.5 7.5 7.5 0 0 1 7.5-7.5 7.5 7.5 0 0 1 7.5 7.5" style="opacity:.2;fill:#000;fill-opacity:1;stroke:none;stroke-width:2.72727251;stroke-linecap:round;stroke-linejoin:round;stroke-miterlimit:4;stroke-dasharray:none;stroke-opacity:1;filter:url(#a)"/>
    <path d="M30 22.5a7.5 7.5 0 0 1-7.5 7.5 7.5 7.5 0 0 1-7.5-7.5 7.5 7.5 0 0 1 7.5-7.5 7.5 7.5 0 0 1 7.5 7.5" style="opacity:1;fill:#303446;fill-opacity:1;stroke:none;stroke-width:2.72727251;stroke-linecap:round;stroke-linejoin:round;stroke-miterlimit:4;stroke-dasharray:none;stroke-opacity:1"/>
    <path d="M18 18v2h-1.71c-.097-.01-.193.001-.29 0a3 3 0 0 0 0 6v-1a2 2 0 0 1 0-4h2v2l4-2.5z" style="fill:none;fill-opacity:1;fill-rule:evenodd"/>
    <path d="M29 22.5a6.5 6.5 0 0 1-6.5 6.5 6.5 6.5 0 0 1-6.5-6.5 6.5 6.5 0 0 1 6.5-6.5 6.5 6.5 0 0 1 6.5 6.5" style="opacity:1;fill:#eebebe;fill-opacity:1;stroke:none;stroke-width:2.36363626;stroke-linecap:round;stroke-linejoin:round;stroke-miterlimit:4;stroke-dasharray:none;stroke-opacity:1"/>
    <path d="M29 22.5a6.5 6.5 0 0 1-6.5 6.5 6.5 6.5 0 0 1-6.5-6.5 6.5 6.5 0 0 1 6.5-6.5 6.5 6.5 0 0 1 6.5 6.5" style="opacity:.2;fill:#eebebe;fill-opacity:1;stroke:none;stroke-width:2.36364;stroke-linecap:round;stroke-linejoin:round;stroke-miterlimit:4;stroke-dasharray:none;stroke-opacity:1"/>
    <path d="M22.5 19.5v3h-3v1h3v3h1v-3h3v-1h-3v-3z" style="opacity:.2;fill:#000;fill-opacity:1;stroke:none;stroke-width:2;stroke-linecap:round;stroke-linejoin:round;stroke-miterlimit:4;stroke-dasharray:none;stroke-opacity:1;filter:url(#c)"/>
    <path d="M22 19v3h-3v1h3v3h1v-3h3v-1h-3v-3z" style="opacity:1;fill:#303446;fill-opacity:1;stroke:none;stroke-width:2;stroke-linecap:round;stroke-linejoin:round;stroke-miterlimit:4;stroke-dasharray:none;stroke-opacity:1"/>
    <path d="M2.462 1.501a1 1 0 0 0-.948.998L1.5 22.498c-.001 1.136 1.59 1.394 1.948.316.91-2.735 3.035-5.176 5.113-6.284 1.276-.65 2.635-1.02 3.932-1.03a7.4 7.4 0 0 1 3.525.881c1.034.556 2.013-.818 1.152-1.615L3.194 1.767a1 1 0 0 0-.732-.266" style="color:#000;font-style:normal;font-variant:normal;font-weight:400;font-stretch:normal;font-size:medium;line-height:normal;font-family:sans-serif;font-variant-ligatures:normal;font-variant-position:normal;font-variant-caps:normal;font-variant-numeric:normal;font-variant-alternates:normal;font-feature-settings:normal;text-indent:0;text-align:start;text-decoration:none;text-decoration-line:none;text-decoration-style:solid;text-decoration-color:#000;letter-spacing:normal;word-spacing:normal;text-transform:none;writing-mode:lr-tb;direction:ltr;text-orientation:mixed;dominant-baseline:auto;baseline-shift:baseline;text-anchor:start;white-space:normal;shape-padding:0;clip-rule:nonzero;display:inline;overflow:visible;visibility:visible;opacity:.2;isolation:auto;mix-blend-mode:normal;color-interpolation:sRGB;color-interpolation-filters:linearRGB;solid-color:#000;solid-opacity:1;vector-effect:none;fill:#000;fill-opacity:1;fill-rule:nonzero;stroke:none;stroke-width:1.99915862;stroke-linecap:round;stroke-linejoin:round;stroke-miterlimit:4;stroke-dasharray:none;stroke-dashoffset:0;stroke-opacity:1;filter:url(#d);color-rendering:auto;image-rendering:auto;shape-rendering:auto;text-rendering:auto;enable-background:accumulate"/>
    <path d="M1.962 1.001A1 1 0 0 0 1.014 2L1 21.998c-.001 1.136 1.59 1.394 1.948.316.91-2.735 3.035-5.176 5.113-6.284 1.276-.65 2.635-1.02 3.932-1.03a7.4 7.4 0 0 1 3.525.881c1.034.556 2.013-.818 1.152-1.615L2.694 1.267a1 1 0 0 0-.732-.266" style="color:#000;font-style:normal;font-variant:normal;font-weight:400;font-stretch:normal;font-size:medium;line-height:normal;font-family:sans-serif;font-variant-ligatures:normal;font-variant-position:normal;font-variant-caps:normal;font-variant-numeric:normal;font-variant-alternates:normal;font-feature-settings:normal;text-indent:0;text-align:start;text-decoration:none;text-decoration-line:none;text-decoration-style:solid;text-decoration-color:#000;letter-spacing:normal;word-spacing:normal;text-transform:none;writing-mode:lr-tb;direction:ltr;text-orientation:mixed;dominant-baseline:auto;baseline-shift:baseline;text-anchor:start;white-space:normal;shape-padding:0;clip-rule:nonzero;display:inline;overflow:visible;visibility:visible;opacity:1;isolation:auto;mix-blend-mode:normal;color-interpolation:sRGB;color-interpolation-filters:linearRGB;solid-color:#000;solid-opacity:1;vector-effect:none;fill:#303446;fill-opacity:1;fill-rule:nonzero;stroke:none;stroke-width:1.99915862;stroke-linecap:round;stroke-linejoin:round;stroke-miterlimit:4;stroke-dasharray:none;stroke-dashoffset:0;stroke-opacity:1;color-rendering:auto;image-rendering:auto;shape-rendering:auto;text-rendering:auto;enable-background:accumulate"/>
    <path d="M2.014 2 2 22c1-3 3.247-5.604 5.603-6.857C9.023 14.419 10.54 14.01 12 14a8.4 8.4 0 0 1 4 1z" style="opacity:1;fill:#eebebe;fill-opacity:1;stroke:none;stroke-width:1.67926061;stroke-linecap:round;stroke-linejoin:round;stroke-miterlimit:4;stroke-dasharray:none;stroke-opacity:1"/>
</svg>
